packages/core/src/svgs/sfund.svg

<svg width="24" height="24" viewBox="0 0 24 24" fill="none" xmlns="http://www.w3.org/2000/svg">
<g clip-path="url(#clip0_31_18562)">
<path d="M0 0H24V24H0V0Z" fill="url(#paint0_linear_31_18562)"/>
<path d="M9.37298 6.92133L12.2015 3.8999L12.3173 5.80705C11.8973 6.24419 10.5387 7.52133 8.97869 9.5699C7.59012 11.3913 8.92298 13.7142 9.93869 14.5499V16.2428C9.27441 15.8828 8.06583 15.3985 7.17869 13.2085C6.08155 10.5085 8.04441 8.4599 9.37298 6.92133Z" fill="url(#paint1_linear_31_18562)"/>
<path d="M14.7 16.9373L11.8629 19.963L11.7515 18.0558C12.1715 17.6144 13.4229 16.2473 15.0943 14.293C16.4658 12.6816 15.0943 10.0716 14.1343 9.52728V7.85156C14.7943 8.21156 15.9086 8.55442 16.8 10.7444C17.8929 13.4444 16.1572 15.7073 14.7 16.9373Z" fill="url(#paint2_linear_31_18562)"/>
<path d="M11.7815 20.1426C10.4529 18.9169 8.45152 15.5826 11.0529 12.0341L12.0472 10.7269C12.6001 9.98122 13.2901 7.91979 12.0687 6.23122C11.9187 6.02551 10.9158 5.32693 10.1744 6.05979L10.0801 6.16693L10.1744 6.06408L12.1758 3.85693C13.5344 5.06551 15.6387 8.30551 13.1915 11.6012L11.9058 13.2641C11.4387 13.9284 10.7787 15.7926 11.9058 17.9612C12.1672 18.3555 13.1915 18.5698 14.0444 17.6184L11.7815 20.1426Z" fill="url(#paint3_linear_31_18562)"/>
</g>
<defs>
<linearGradient id="paint0_linear_31_18562" x1="12" y1="0" x2="12" y2="24" gradientUnits="userSpaceOnUse">
<stop stop-color="#380087"/>
<stop offset="1" stop-color="#13002E"/>
</linearGradient>
<linearGradient id="paint1_linear_31_18562" x1="9.58298" y1="3.8999" x2="9.58298" y2="16.2428" gradientUnits="userSpaceOnUse">
<stop stop-color="#986EF8"/>
<stop offset="1" stop-color="#4592E6"/>
</linearGradient>
<linearGradient id="paint2_linear_31_18562" x1="14.4472" y1="19.963" x2="14.4472" y2="7.85156" gradientUnits="userSpaceOnUse">
<stop stop-color="#3CD7FE"/>
<stop offset="1" stop-color="#8651E7"/>
</linearGradient>
<linearGradient id="paint3_linear_31_18562" x1="12.0515" y1="3.85693" x2="12.0515" y2="20.1426" gradientUnits="userSpaceOnUse">
<stop stop-color="#45CFFB"/>
<stop offset="1" stop-color="#9E68FC"/>
</linearGradient>
<clipPath id="clip0_31_18562">
<rect width="24" height="24" fill="white"/>
</clipPath>
</defs>
</svg>

<svg xmlns="http://www.w3.org/2000/svg" width="24" height="24" fill="none" viewBox="0 0 24 24"><g clip-path="url(#a)"><path fill="url(#b)" d="M0 0h24v24H0z"/><path fill="url(#c)" d="M9.373 6.921 12.202 3.9l.115 1.907c-.42.437-1.778 1.714-3.338 3.763-1.389 1.821-.056 4.144.96 4.98v1.693c-.665-.36-1.873-.844-2.76-3.034-1.097-2.7.865-4.75 2.194-6.288"/><path fill="url(#d)" d="m14.7 16.937-2.837 3.026-.111-1.907c.42-.442 1.67-1.809 3.342-3.763 1.372-1.611 0-4.221-.96-4.766V7.852c.66.36 1.775.702 2.666 2.892 1.093 2.7-.643 4.963-2.1 6.193"/><path fill="url(#e)" d="M11.782 20.143c-1.33-1.226-3.33-4.56-.73-8.109l.995-1.307c.553-.746 1.243-2.807.022-4.496-.15-.205-1.153-.904-1.895-.171l-.094.107.094-.103 2.002-2.207c1.358 1.209 3.463 4.449 1.015 7.744l-1.285 1.663c-.467.664-1.127 2.529 0 4.697.261.395 1.285.609 2.138-.343z"/></g><defs><linearGradient id="b" x1="12" x2="12" y1="0" y2="24" gradientUnits="userSpaceOnUse"><stop stop-color="#380087"/><stop offset="1" stop-color="#13002E"/></linearGradient><linearGradient id="c" x1="9.583" x2="9.583" y1="3.9" y2="16.243" gradientUnits="userSpaceOnUse"><stop stop-color="#986EF8"/><stop offset="1" stop-color="#4592E6"/></linearGradient><linearGradient id="d" x1="14.447" x2="14.447" y1="19.963" y2="7.852" gradientUnits="userSpaceOnUse"><stop stop-color="#3CD7FE"/><stop offset="1" stop-color="#8651E7"/></linearGradient><linearGradient id="e" x1="12.052" x2="12.052" y1="3.857" y2="20.143" gradientUnits="userSpaceOnUse"><stop stop-color="#45CFFB"/><stop offset="1" stop-color="#9E68FC"/></linearGradient><clipPath id="a"><path fill="#fff" d="M0 0h24v24H0z"/></clipPath></defs></svg>
